X:12
T: Asszonyok, asszonyok
O: Gyergyószentmiklós (Csík), ?, 1910
Q: "Poco parlando" 1/4=72
M:2/4
L:1/4
K:Eb
d>c | (3:2:2 f/e (3:2:2 d/c | c/B/B/F/ | G<HG |
d>c | f/e/d/c/ | c/B/B/F/ | G<HG | 
B/B/B/F/ | G G | B/B/B/F/ | G G | B/B/B/F/ | G G/ z/ | 
B/B/B/F/ | G/G/G/F/ | G/B/A/F/ | G G/z/ | 
B/B/B/F/ | G/G/G/F/ | G/B/A/F/ | G G/z/ | 

